X: 5736
T: Cahan O'Hara
R: waltz
M: 3/4
K: Fmajor
FD|C2D2 (3FGA|GF D2 FD|C2D2 (3FGA|G4 FG|
A2c2 (3def|dc BA GF|F2A2c2|d4 cB|
A2c2 (3def|dc BA GF|F2 Ac de|f4e2|
dc A2 GF|GF D2 FD|CD (3FGA GF|F4||

